; generated by PrusaSlicer 2.4.2+arm64 on 2022-07-06 at 17:30:36 UTC


;
;
; 

; external perimeters extrusion width = 0.60mm
; perimeters extrusion width = 0.50mm
; infill extrusion width = 0.50mm
; solid infill extrusion width = 0.50mm
; top infill extrusion width = 0.45mm
; support material extrusion width = 0.38mm
; first layer extrusion width = 0.42mm

M73 P0 R17
M73 Q0 S17
M201 X1000 Y1000 Z200 E5000 ; sets maximum accelerations, mm/sec^2
M203 X200 Y200 Z12 E120 ; sets maximum feedrates, mm / sec
M204 P1250 R1250 T1250 ; sets acceleration (P, T) and retract acceleration (R), mm/sec^2
M205 X8.00 Y8.00 Z0.40 E4.50 ; sets the jerk limits, mm/sec
M205 S0 T0 ; sets the minimum extruding and travel feed rate, mm/sec
M107
;TYPE:Custom
M862.3 P "MK3S" ; printer model check
M862.1 P0.4 ; nozzle diameter check
M115 U3.11.0 ; tell printer latest fw version
G90 ; use absolute coordinates
M83 ; extruder relative mode
M104 S215 ; set extruder temp
M140 S60 ; set bed temp
M190 S60 ; wait for bed temp
M109 S215 ; wait for extruder temp
G28 W ; home all without mesh bed level
G80 ; mesh bed leveling
G1 Z0.2 F720
G1 Y-3 F1000 ; go outside print area
G92 E0
G1 X60 E9 F1000 ; intro line
G1 X100 E12.5 F1000 ; intro line
G92 E0
M221 S95

; Don't change E values below. Excessive value can damage the printer.

M907 E538 ; set extruder motor current
G21 ; set units to millimeters
G90 ; use absolute coordinates
M83 ; use relative distances for extrusion
M900 K0.05 ; Filament gcode LA 1.5
M900 K30 ; Filament gcode LA 1.0
M107
;LAYER_CHANGE
;Z:0.2
;HEIGHT:0.2
;BEFORE_LAYER_CHANGE
G92 E0.0
;0.2


G1 E-.8 F2100
G1 Z.4 F720
;AFTER_LAYER_CHANGE
;0.2
G1 X93.771 Y93.771 F10800
G1 Z.2 F720
G1 E.8 F2100
M204 S800
;TYPE:Skirt/Brim
;WIDTH:0.42
G1 F1200
G1 X96.407 Y91.135 E.11687
G1 X98.088 Y90.439 E.05704
G1 X151.912 Y90.439 E1.68764
G1 X153.593 Y91.135 E.05704
G1 X156.581 Y94.123 E.13247
M73 Q1 S17
G1 X157.277 Y95.804 E.05704
G1 X157.277 Y114.196 E.57668
M73 P1 R17
G1 X156.581 Y115.877 E.05704
G1 X153.593 Y118.865 E.13247
G1 X151.912 Y119.561 E.05704
G1 X98.088 Y119.561 E1.68764
G1 X96.407 Y118.865 E.05704
G1 X93.419 Y115.877 E.13247
G1 X92.723 Y114.196 E.05704
G1 X92.723 Y95.804 E.57668
G1 X93.419 Y94.123 E.05704
G1 X93.729 Y93.813 E.01372
M204 S1000
;WIPE_START
G1 F8640
G1 X96.056 Y91.486 E-.76
;WIPE_END
G1 E-.04 F2100
G1 Z.6 F720
G1 X96.204 Y95.286 F10800
G1 Z.2 F720
G1 E.8 F2100
M204 S800
G1 F1200
G1 X96.427 Y94.911 E.01366
G1 X97.381 Y93.998 E.04141
G1 X98.55 Y93.381 E.04143
G1 X99.868 Y93.103 E.04224
G1 X150.189 Y93.106 E1.57779
G1 X151.21 Y93.3 E.03256
G1 X152.188 Y93.716 E.03333
G1 X153.312 Y94.612 E.04508
G1 X154.205 Y95.95 E.05044
G1 X154.614 Y97.496 E.05014
G1 X154.58 Y112.756 E.47846
G1 X154.219 Y114.02 E.04123
G1 X153.535 Y115.136 E.04103
G1 X152.574 Y116.034 E.04124
G1 X151.451 Y116.619 E.03971
G1 X150.132 Y116.897 E.04225
G1 X99.782 Y116.897 E1.5787
G1 X98.429 Y116.571 E.04363
M73 P2 R17
M73 Q2 S17
G1 X97.281 Y115.924 E.04131
G1 X96.318 Y114.951 E.04293
G1 X95.666 Y113.737 E.04322
G1 X95.387 Y112.416 E.04234
G1 X95.405 Y97.356 E.47219
G1 X95.754 Y96.043 E.04259
M73 P2 R16
G1 X96.174 Y95.337 E.02574
M204 S1000
G1 X96.495 Y95.526 F10800
M204 S800
G1 F1200
G1 X96.707 Y95.165 E.01312
G1 X97.622 Y94.289 E.03972
G1 X98.7 Y93.728 E.03811
G1 X99.887 Y93.48 E.03801
G1 X150.171 Y93.484 E1.57661
G1 X151.117 Y93.667 E.03022
G1 X152.015 Y94.052 E.03062
G1 X153.053 Y94.887 E.0418
G1 X153.849 Y96.078 E.0449
M73 Q2 S16
G1 X154.236 Y97.521 E.04684
G1 X154.21 Y112.679 E.47529
G1 X153.883 Y113.848 E.03804
G1 X153.257 Y114.88 E.03785
G1 X152.376 Y115.712 E.03799
G1 X151.3 Y116.272 E.03806
G1 X150.113 Y116.52 E.03801
G1 X99.805 Y116.52 E1.57737
G1 X98.545 Y116.211 E.04067
G1 X97.492 Y115.61 E.03803
G1 X96.606 Y114.708 E.03964
G1 X96.012 Y113.584 E.03985
M73 Q3 S16
G1 X95.764 Y112.397 E.03805
G1 X95.776 Y97.427 E.46936
G1 X96.093 Y96.211 E.03942
M73 P3 R16
G1 X96.465 Y95.578 E.02301
M204 S1000
G1 X96.786 Y95.769 F10800
M204 S800
G1 F1200
G1 X97.017 Y95.381 E.01415
G1 X97.861 Y94.582 E.03645
G1 X98.849 Y94.075 E.03482
G1 X99.906 Y93.857 E.03384
G1 X150.152 Y93.861 E1.57543
G1 X151.024 Y94.032 E.02785
G1 X151.84 Y94.387 E.0279
G1 X152.793 Y95.161 E.03848
G1 X153.517 Y96.259 E.04126
G1 X153.859 Y97.545 E.0417
G1 X153.84 Y112.602 E.47212
G1 X153.527 Y113.72 E.03639
G1 X152.95 Y114.66 E.03458
G1 X152.139 Y115.418 E.0348
G1 X151.151 Y115.925 E.03482
G1 X150.094 Y116.143 E.03384
G1 X99.828 Y116.143 E1.57604
G1 X98.663 Y115.852 E.03766
G1 X97.704 Y115.297 E.03474
G1 X96.897 Y114.465 E.03634
G1 X96.359 Y113.434 E.03648
G1 X96.141 Y112.378 E.03382
G1 X96.147 Y97.499 E.46651
G1 X96.451 Y96.332 E.03781
G1 X96.755 Y95.821 E.01866
M204 S1000
G1 X97.077 Y96.01 F10800
M204 S800
G1 F1200
G1 X97.298 Y95.635 E.01364
G1 X98.059 Y94.905 E.03305
G1 X98.998 Y94.422 E.03312
G1 X99.925 Y94.234 E.02965
G1 X150.133 Y94.238 E1.57425
G1 X150.929 Y94.398 E.02544
M73 P4 R16
M73 Q4 S16
G1 X151.664 Y94.721 E.02518
G1 X152.53 Y95.433 E.03516
G1 X153.185 Y96.439 E.03763
G1 X153.482 Y97.569 E.03663
G1 X153.469 Y112.528 E.46903
G1 X153.19 Y113.548 E.03317
G1 X152.671 Y114.405 E.0314
G1 X151.942 Y115.095 E.03148
G1 X151.002 Y115.578 E.03314
G1 X150.075 Y115.766 E.02964
G1 X99.852 Y115.766 E1.57471
G1 X98.783 Y115.494 E.03461
G1 X97.918 Y114.986 E.03143
G1 X97.189 Y114.225 E.03305
G1 X96.706 Y113.286 E.03312
G1 X96.518 Y112.359 E.02964
G1 X96.518 Y97.569 E.46374
G1 X96.79 Y96.499 E.0346
G1 X97.047 Y96.061 E.01591
M204 S1000
G1 X97.368 Y96.253 F10800
M204 S800
G1 F1200
G1 X97.607 Y95.851 E.01467
G1 X98.297 Y95.198 E.02977
G1 X99.144 Y94.771 E.02976
G1 X99.943 Y94.611 E.02554
G1 X150.115 Y94.615 E1.57309
G1 X150.796 Y94.751 E.02178
G1 X151.487 Y95.056 E.02369
G1 X152.267 Y95.704 E.03181
G1 X152.829 Y96.566 E.03225
G1 X153.105 Y97.594 E.03337
G1 X153.099 Y112.455 E.46596
G1 X152.853 Y113.379 E.02997
G1 X152.393 Y114.149 E.02813
G1 X151.703 Y114.802 E.02977
G1 X150.856 Y115.229 E.02976
G1 X150.057 Y115.389 E.02554
G1 X99.877 Y115.389 E1.57336
G1 X98.905 Y115.136 E.0315
M73 P5 R16
M73 Q5 S16
G1 X98.135 Y114.676 E.02811
G1 X97.482 Y113.987 E.02977
G1 X97.054 Y113.139 E.02976
G1 X96.895 Y112.341 E.02554
G1 X96.895 Y97.593 E.4624
G1 X97.148 Y96.621 E.0315
G1 X97.337 Y96.304 E.01156
M204 S1000
G1 X97.655 Y96.498 F10800
M204 S800
G1 F1200
G1 X97.915 Y96.07 E.0157
G1 X98.533 Y95.494 E.02649
G1 X99.288 Y95.12 E.02641
G1 X99.961 Y94.988 E.02151
G1 X150.095 Y94.992 E1.57191
G1 X150.699 Y95.116 E.01933
G1 X151.308 Y95.388 E.02093
G1 X152.001 Y95.973 E.02843
G1 X152.495 Y96.744 E.0287
G1 X152.728 Y97.618 E.02837
G1 X152.728 Y112.382 E.4629
G1 X152.495 Y113.255 E.02832
G1 X152.085 Y113.93 E.02478
G1 X151.467 Y114.506 E.02649
G1 X150.712 Y114.88 E.02641
G1 X150.039 Y115.012 E.0215
G1 X99.902 Y115.012 E1.57201
G1 X99.029 Y114.779 E.02832
G1 X98.354 Y114.369 E.02478
G1 X97.777 Y113.751 E.02649
G1 X97.404 Y112.996 E.02641
G1 X97.272 Y112.323 E.0215
G1 X97.272 Y97.618 E.46105
G1 X97.505 Y96.745 E.02832
G1 X97.624 Y96.549 E.0072
M204 S1000
G1 X97.94 Y96.742 F10800
M204 S800
G1 F1200
G1 X98.194 Y96.325 E.01528
G1 X98.726 Y95.819 E.02306
G1 X99.432 Y95.47 E.02468
G1 X99.978 Y95.365 E.01745
G1 X150.074 Y95.369 E1.57073
G1 X150.599 Y95.48 E.01681
M73 P6 R16
M73 Q6 S16
G1 X151.127 Y95.72 E.01817
G1 X151.734 Y96.241 E.0251
G1 X152.139 Y96.872 E.02351
G1 X152.351 Y97.644 E.0251
G1 X152.351 Y112.356 E.46127
G1 X152.139 Y113.129 E.02513
G1 X151.806 Y113.675 E.02004
G1 X151.274 Y114.181 E.02306
G1 X150.568 Y114.53 E.02468
G1 X150.022 Y114.635 E.01745
G1 X99.928 Y114.635 E1.57066
G1 X99.155 Y114.423 E.02513
G1 X98.609 Y114.09 E.02004
G1 X98.102 Y113.557 E.02306
G1 X97.753 Y112.852 E.02468
G1 X97.649 Y112.305 E.01745
G1 X97.649 Y97.644 E.45969
G1 X97.861 Y96.871 E.02513
G1 X97.909 Y96.793 E.00288
M204 S1000
G1 X98.223 Y96.989 F10800
M204 S800
G1 F1200
G1 X98.499 Y96.547 E.01633
G1 X98.962 Y96.114 E.01986
G1 X99.571 Y95.821 E.02122
G1 X99.995 Y95.742 E.01351
G1 X150.053 Y95.746 E1.56954
G1 X150.497 Y95.844 E.01423
G1 X150.943 Y96.05 E.01541
G1 X151.466 Y96.507 E.02178
G1 X151.785 Y97.002 E.01847
G1 X151.974 Y97.671 E.02179
G1 X151.974 Y112.329 E.45958
G1 X151.784 Y112.999 E.02183
G1 X151.501 Y113.453 E.01678
G1 X151.038 Y113.886 E.01986
G1 X150.429 Y114.179 E.02122
G1 X150.005 Y114.258 E.01351
G1 X99.955 Y114.258 E1.56929
M73 Q7 S16
G1 X99.285 Y114.068 E.02183
M73 P7 R16
G1 X98.831 Y113.785 E.01678
G1 X98.398 Y113.322 E.01986
G1 X98.104 Y112.712 E.02122
G1 X98.026 Y112.289 E.01351
G1 X98.026 Y97.671 E.45833
G1 X98.203 Y97.045 E.02039
M204 S1000
G1 X98.564 Y97.152 F10800
M204 S800
G1 F1200
G1 X98.802 Y96.773 E.01401
G1 X99.194 Y96.413 E.01669
G1 X99.707 Y96.173 E.01775
G1 X100.011 Y96.119 E.00969
G1 X150.031 Y96.123 E1.56834
G1 X150.391 Y96.206 E.01157
G1 X150.756 Y96.379 E.01266
G1 X151.196 Y96.771 E.01848
G1 X151.431 Y97.136 E.01362
G1 X151.597 Y97.699 E.01841
G1 X151.597 Y112.301 E.45783
G1 X151.431 Y112.864 E.01842
G1 X151.198 Y113.227 E.01351
G1 X150.806 Y113.587 E.01669
G1 X150.293 Y113.827 E.01775
G1 X149.989 Y113.881 E.00968
G1 X99.983 Y113.881 E1.56791
G1 X99.419 Y113.715 E.01842
G1 X99.057 Y113.482 E.01351
G1 X98.697 Y113.09 E.01669
G1 X98.457 Y112.577 E.01775
G1 X98.403 Y112.273 E.00968
G1 X98.403 Y97.699 E.45695
G1 X98.547 Y97.209 E.01601
M204 S1000
G1 X98.906 Y97.32 F10800
M204 S800
G1 F1200
G1 X99.078 Y97.03 E.01056
G1 X99.386 Y96.739 E.01328
G1 X99.802 Y96.539 E.01448
G1 X100.029 Y96.497 E.00724
M73 Q8 S16
G1 X150.009 Y96.5 E1.56709
G1 X150.247 Y96.556 E.00767
M73 P8 R15
G1 X150.568 Y96.707 E.01111
G1 X150.923 Y97.032 E.01508
G1 X151.079 Y97.273 E.00902
G1 X151.22 Y97.729 E.01495
G1 X151.22 Y112.271 E.45597
G1 X151.079 Y112.727 E.01495
G1 X150.922 Y112.97 E.00908
G1 X150.614 Y113.261 E.01328
G1 X150.198 Y113.461 E.01448
G1 X149.971 Y113.503 E.00724
G1 X100.012 Y113.503 E1.56641
G1 X99.557 Y113.363 E.01495
M73 Q8 S15
G1 X99.314 Y113.205 E.00908
G1 X99.022 Y112.898 E.01328
G1 X98.823 Y112.482 E.01448
G1 X98.78 Y112.255 E.00724
G1 X98.78 Y97.729 E.45545
G1 X98.889 Y97.377 E.01153
M204 S1000
G1 X99.245 Y97.494 F10800
M204 S800
G1 F1200
G1 X99.27 Y97.416 E.00258
G1 X99.353 Y97.289 E.00476
G1 X99.621 Y97.035 E.01156
G1 X99.933 Y96.893 E.01077
G1 X100.044 Y96.874 E.00352
G1 X149.987 Y96.877 E1.56592
G1 X150.104 Y96.905 E.00377
G1 X150.378 Y97.034 E.0095
G1 X150.647 Y97.289 E.0116
G1 X150.73 Y97.416 E.00476
G1 X150.843 Y97.76 E.01136
G1 X150.843 Y112.24 E.45399
G1 X150.73 Y112.584 E.01136
G1 X150.647 Y112.711 E.00476
G1 X150.379 Y112.965 E.01156
G1 X150.067 Y113.107 E.01077
G1 X149.956 Y113.126 E.00352
G1 X100.044 Y113.126 E1.56495
G1 X99.7 Y113.013 E.01136
M73 P9 R15
M73 Q9 S15
G1 X99.573 Y112.93 E.00476
G1 X99.319 Y112.663 E.01156
G1 X99.177 Y112.35 E.01077
G1 X99.157 Y112.239 E.00352
G1 X99.157 Y97.76 E.45398
G1 X99.226 Y97.551 E.0069
M204 S1000
G1 X99.577 Y97.677 F10800
M204 S800
G1 F1200
G1 X99.634 Y97.541 E.00462
G1 X99.815 Y97.36 E.00802
G1 X100.065 Y97.251 E.00856
G1 X149.967 Y97.257 E1.56464
G1 X150.185 Y97.36 E.00757
G1 X150.366 Y97.541 E.00802
G1 X150.466 Y97.795 E.00856
G1 X150.466 Y112.205 E.45178
G1 X150.366 Y112.459 E.00856
G1 X150.185 Y112.64 E.00802
G1 X149.935 Y112.749 E.00856
G1 X100.079 Y112.749 E1.56319
G1 X99.825 Y112.65 E.00856
G1 X99.644 Y112.469 E.00802
G1 X99.534 Y112.219 E.00856
G1 X99.534 Y97.795 E.45223
G1 X99.557 Y97.733 E.00207
M204 S1000
G1 X99.911 Y97.837 F10800
M204 S800
G1 F1200
G1 X99.94 Y97.768 E.00235
G1 X100.052 Y97.656 E.00495
G1 X100.121 Y97.628 E.00235
G1 X149.879 Y97.628 E1.56012
G1 X149.948 Y97.656 E.00235
M73 P10 R15
M73 Q10 S15
G1 X150.06 Y97.768 E.00495
G1 X150.089 Y97.837 E.00235
G1 X150.089 Y112.163 E.44916
G1 X150.06 Y112.232 E.00235
G1 X149.948 Y112.344 E.00495
G1 X149.879 Y112.372 E.00235
G1 X100.121 Y112.372 E1.56012
G1 X100.052 Y112.344 E.00235
G1 X99.94 Y112.232 E.00495
G1 X99.911 Y112.163 E.00235
G1 X99.911 Y97.897 E.44728
M204 S1000
; printing object 4_AbiAdam_Casing.stl id:0 copy 0
G1 X100.41 Y98.126 F10800
M204 S800
;TYPE:External perimeter
G1 F1200
G1 X149.59 Y98.126 E1.542
G1 X149.59 Y111.874 E.43104
G1 X100.41 Y111.874 E1.542
G1 X100.41 Y98.186 E.42916
M204 S1000
M73 P11 R15
M73 Q11 S15
G1 X100.808 Y98.163 F10800
G1 X100.787 Y98.503
M204 S800
;TYPE:Perimeter
G1 F1200
G1 X149.213 Y98.503 E1.51836
G1 X149.213 Y111.497 E.40739
G1 X100.787 Y111.497 E1.51836
G1 X100.787 Y98.563 E.40551
M204 S1000
;WIPE_START
G1 F8640
G1 X104.079 Y98.559 E-.76
;WIPE_END
G1 E-.04 F2100
G1 Z.6 F720
G1 X143.55 Y104.974 F10800
G1 Z.2 F720
G1 E.8 F2100
M204 S800
;TYPE:External perimeter
G1 F1200
G1 X143.658 Y104.364 E.01941
G1 X143.967 Y103.828 E.01941
G1 X144.441 Y103.43 E.01941
G1 X145.023 Y103.219 E.01941
G1 X145.642 Y103.219 E.01941
G1 X146.223 Y103.43 E.01941
G1 X146.698 Y103.828 E.01941
G1 X147.007 Y104.364 E.01941
G1 X147.115 Y104.974 E.01941
G1 X147.007 Y105.583 E.01941
G1 X146.698 Y106.119 E.01941
G1 X146.223 Y106.517 E.0194
G1 X145.642 Y106.729 E.01941
G1 X145.023 Y106.729 E.01941
G1 X144.441 Y106.517 E.01941
G1 X143.967 Y106.119 E.01941
G1 X143.658 Y105.583 E.0194
G1 X143.561 Y105.033 E.01752
M204 S1000
G1 X143.204 Y104.774 F10800
G1 X143.168 Y104.974
M204 S800
;TYPE:Perimeter
G1 F1200
G1 X143.298 Y104.233 E.02357
G1 X143.674 Y103.582 E.02357
G1 X144.25 Y103.099 E.02357
G1 X144.957 Y102.841 E.02357
G1 X145.708 Y102.841 E.02357
G1 X146.415 Y103.099 E.02357
G1 X146.991 Y103.582 E.02357
G1 X147.367 Y104.233 E.02357
G1 X147.497 Y104.974 E.02357
G1 X147.367 Y105.714 E.02357
G1 X146.991 Y106.365 E.02357
G1 X146.415 Y106.848 E.02357
G1 X145.708 Y107.106 E.02357
G1 X144.957 Y107.106 E.02357
G1 X144.25 Y106.848 E.02357
G1 X143.674 Y106.365 E.02358
G1 X143.298 Y105.714 E.02357
G1 X143.178 Y105.033 E.02169
M204 S1000
;WIPE_START
G1 F8640
G1 X143.298 Y104.233 E-.18669
G1 X143.674 Y103.582 E-.17361
G1 X144.25 Y103.099 E-.17361
G1 X144.957 Y102.841 E-.17361
G1 X145.184 Y102.841 E-.05248
;WIPE_END
G1 E-.04 F2100
G1 Z.6 F720
G1 X141.652 Y104.966 F10800
G1 Z.2 F720
G1 E.8 F2100
M204 S800
;TYPE:External perimeter
G1 F1200
G1 X141.544 Y105.575 E.0194
G1 X141.235 Y106.111 E.0194
G1 X140.761 Y106.509 E.0194
G1 X140.179 Y106.72 E.0194
G1 X139.56 Y106.72 E.0194
G1 X138.979 Y106.509 E.0194
M73 P12 R15
M73 Q12 S15
G1 X138.505 Y106.111 E.0194
G1 X138.195 Y105.575 E.0194
G1 X138.088 Y104.966 E.0194
G1 X138.195 Y104.356 E.0194
G1 X138.505 Y103.82 E.0194
G1 X138.979 Y103.422 E.0194
G1 X139.56 Y103.211 E.01941
G1 X140.179 Y103.211 E.0194
G1 X140.761 Y103.422 E.0194
G1 X141.235 Y103.82 E.01941
G1 X141.544 Y104.356 E.0194
G1 X141.641 Y104.906 E.01752
M204 S1000
G1 X141.998 Y105.166 F10800
G1 X142.035 Y104.966
M204 S800
;TYPE:Perimeter
G1 F1200
G1 X141.904 Y105.706 E.02357
G1 X141.528 Y106.357 E.02357
G1 X140.952 Y106.84 E.02357
G1 X140.246 Y107.098 E.02357
G1 X139.494 Y107.098 E.02357
G1 X138.787 Y106.84 E.02357
G1 X138.211 Y106.357 E.02357
G1 X137.835 Y105.706 E.02357
G1 X137.705 Y104.966 E.02357
G1 X137.835 Y104.225 E.02357
G1 X138.211 Y103.574 E.02357
G1 X138.787 Y103.091 E.02357
G1 X139.494 Y102.834 E.02357
G1 X140.246 Y102.834 E.02357
G1 X140.952 Y103.091 E.02357
G1 X141.528 Y103.574 E.02358
G1 X141.904 Y104.225 E.02357
G1 X142.024 Y104.906 E.02169
M204 S1000
;WIPE_START
G1 F8640
G1 X141.904 Y105.706 E-.18669
G1 X141.528 Y106.357 E-.17361
G1 X140.952 Y106.84 E-.17361
G1 X140.246 Y107.098 E-.17361
G1 X140.018 Y107.098 E-.05249
;WIPE_END
G1 E-.04 F2100
G1 Z.6 F720
G1 X136.189 Y104.978 F10800
G1 Z.2 F720
G1 E.8 F2100
M204 S800
;TYPE:External perimeter
G1 F1200
G1 X136.081 Y105.587 E.0194
G1 X135.772 Y106.123 E.0194
G1 X135.298 Y106.521 E.0194
G1 X134.716 Y106.733 E.0194
G1 X134.097 Y106.733 E.0194
G1 X133.516 Y106.521 E.0194
G1 X133.042 Y106.123 E.01941
G1 X132.732 Y105.587 E.0194
G1 X132.625 Y104.978 E.01941
G1 X132.732 Y104.368 E.0194
G1 X133.042 Y103.832 E.0194
G1 X133.516 Y103.435 E.0194
G1 X134.097 Y103.223 E.0194
G1 X134.716 Y103.223 E.0194
G1 X135.298 Y103.435 E.0194
G1 X135.772 Y103.832 E.01941
G1 X136.081 Y104.368 E.0194
G1 X136.179 Y104.919 E.01752
M204 S1000
G1 X136.535 Y105.178 F10800
G1 X136.572 Y104.978
M204 S800
;TYPE:Perimeter
G1 F1200
G1 X136.441 Y105.718 E.02357
